X:1
T:Des Abends
T:Johannes Brahms
T:Des Abends
T:aus Zwölf Deutsche Volkslieder, WoO 35,6
T:CPDL - Creative Commons Attribution Non Commercial 3.0
T:CPDL - Creative Commons Attribution Non Commercial 3.0
C:Johannes Brahms
Z:CPDL - Creative Commons Attribution Non Commercial 3.0
%%score [ ( 1 2 ) ( 3 4 ) ( 5 6 ) ( 7 8 ) ]
L:1/8
Q:1/4=80
M:2/4
K:C
V:1 treble nm="S"
V:2 treble 
V:3 treble nm="A"
V:4 treble 
V:5 treble-8 nm="T"
V:6 treble-8 
V:7 bass nm="B"
V:8 bass 
V:1
!mf!"^Nicht zu langsam, erregt" E | A>B c B/A/ | B B/A/ ^G>E | (AA/)B/ c B/A/ | BB E!f! c/d/ | %5
w: 1.~Des|A- bends kann ich nicht|schla- fen _ gehn, zu|mei- ner Herz- lieb- sten _|muss ich gehn; zu _|
w: 2.~Wer|ist denn da? wer _|klop- fet _ an, der|mich _ so leis auf- *|we- cken kann? Das _|
 e(d/d/) e(f/e/) | d>c d !>!e/d/ |!p! (cc/)B/!<(! c/d/ e/c/!<)! |!>(! B(A/!>)!A/) B !>!c/B/ | %9
w: mei- ner Herz- lieb- sten _|_ ich gehn, und _|sollt _ ich an _ der _|Tür blei- ben stehn, ganz _|
w: ist der _ Herz- al- ler-|liebs- te dein, steh _|auf _ mein Schatz _ und _|lass mich _ ein, ganz _|
!pp! A2 ^G2 | A2 z |] %11
w: hei- me-|lig!|
w: hei- me-|lig!|
V:2
 x | x4 | x4 | x4 | x4 | x4 | dc/c/ x2 | x4 | x4 | x4 | x3 |] %11
w: ||||||muss * *|||||
V:3
!mf! E | E>E E ^G/A/ | FF E>E | (EE/)E/ E ^G/A/ | E^D E!f!=G | G(G/G/) G(A/c/) | G>G G!>!G | %7
w: |||||||
!p! (AA/)^G/!<(! A/B/ c/A/!<)! |!>(! ^G(^F/!>)!F/) G!>!=F |!pp! E2 D2 | C2 z |] %11
w: bräch- ten die * * * *||||
V:4
 x | x4 | x4 | x4 | x4 | x4 | GG/G/ x2 | x4 | x4 | x4 | x3 |] %11
w: ||||||ü- ber den|||||
V:5
!mf! e | c>^G A B/c/ | d d/c/ B>e | cA/^G/ A B/c/ | G^F G!f! c/B/ | c(B/B/) c(c/c/) | B>c B!>!B | %7
w: 3.~Wenn|al- le Ster- ne _|Schrei- ber _ gut und|mei- ner Herz~\- Wol- ken Pa-|pier da- zu, so _|soll- ten sie schrei- ben der|Lie- ben mein, sie|
w: 4.~Ach|hätt ich Fe- dern _|wie ein _ Hahn und|könnt _ ich schwim- men _|wie ein Schwan, so _|wollt ich _ schwim- men wohl|* den Rhein hin|
!p! c>e!<(! e(A/A/)!<)! |!>(! B(c/!>)!c/) B!>!d |!pp! c2 B2 | A2 z |] %11
w: * * Lieb in den|Brief nicht _ ein, ganz|hei- me-|lig!|
w: * der Herz- al- ler-|liebs- ten _ mein, ganz|hei- me-|lig!|
V:6
 x | x4 | x4 | c>^G x2 | x4 | x4 | Bc/c/ x2 | ce/e/ x2 | x4 | x4 | x3 |] %11
w: |||al- le||||bräch- ten die||||
w: ||||||ü- ber *|zu _ _||||
V:7
!mf! E, | A,,>E, A, E,/A,/ | D,D, E,>E, | (A,,A,,/)E,/ A, E,/C,/ | B,,B,, E,!f! E,/G,/ | %5
 C,(G,/G,/) C,(F,/F,/) | G,>E, G,!>!E, |!p! (A,A,/)E,/!<(! A,(C,/C,/)!<)! | %8
!>(! E,(A,,/!>)!A,,/) E,!>!D, |!pp! E,2 E,2 | A,,2 z |] %11
V:8
 x | x4 | x4 | x4 | x4 | x4 | G,E,/E,/ x2 | x4 | x4 | x4 | x3 |] %11

